findly-builder/apps/searchassist/src/assets/icons/business-rules/ifcondition.svg

<svg width="20" height="20" viewBox="0 0 20 20" fill="none" xmlns="http://www.w3.org/2000/svg">
<path d="M9.9998 0.799805C4.9266 0.799805 0.799805 4.9266 0.799805 9.9998C0.799805 15.073 4.9266 19.1998 9.9998 19.1998C15.073 19.1998 19.1998 15.073 19.1998 9.9998C19.1998 4.9266 15.073 0.799805 9.9998 0.799805ZM7.71861 4.527C8.24821 4.527 8.4966 4.8374 8.491 5.22181C8.485 5.6058 8.1258 6.0398 7.7174 6.0398C7.28741 6.0398 7.01581 5.7546 7.02301 5.2834C7.02901 4.899 7.34341 4.527 7.71861 4.527ZM4.8534 12.1322C4.871 11.6634 5.0782 11.3386 5.625 9.8258L5.977 8.84661C6.055 8.63221 6.0966 8.53221 6.129 8.3982C6.1454 8.33101 6.1486 8.3034 6.1498 8.2538C6.1514 8.16701 6.0498 8.1542 5.9642 8.2194C5.7922 8.3502 5.4154 8.6746 5.263 8.8726C5.2126 8.9226 5.163 8.9226 5.12661 8.885L5.00301 8.7594C4.9666 8.7226 4.943 8.67261 4.9678 8.6482C5.0074 8.6022 5.3894 8.049 5.9642 7.6074C6.31621 7.337 6.7194 7.0858 7.2234 7.0858C7.6074 7.0858 7.7654 7.2842 7.761 7.5322C7.7558 7.805 7.6006 8.177 7.3402 8.89661L6.593 10.7818C6.5082 11.0114 6.4562 11.1694 6.4246 11.2858C6.393 11.4022 6.3762 11.499 6.5002 11.499C6.7482 11.499 7.297 10.889 7.3734 10.777C7.3986 10.7402 7.4486 10.7402 7.4726 10.7646L7.6602 10.9414C7.6966 10.9782 7.70821 11.0034 7.67021 11.065C7.5246 11.2034 6.8438 12.449 5.3306 12.5046C4.959 12.5174 4.8466 12.3178 4.8534 12.1322ZM12.0174 12.5298C11.5982 12.5298 11.3334 12.2446 11.3406 11.7734C11.3466 11.389 11.7266 11.029 12.0922 11.029C12.6086 11.029 12.777 11.327 12.7718 11.7114C12.7654 12.0958 12.4154 12.5298 12.0174 12.5298ZM13.183 4.7062C13.1602 4.5822 13.025 4.3582 12.7394 4.3582C11.9214 4.3582 11.4518 5.9306 11.1066 7.257H12.0946C12.169 7.257 12.193 7.29381 12.1794 7.36861L12.1118 7.67861C12.0982 7.76541 12.0722 7.8026 11.973 7.8026H10.9978C10.7074 8.8194 10.2906 11.1406 9.82141 12.4418C8.9734 14.7022 8.0358 15.9202 6.5106 15.9202C5.7662 15.9202 5.2894 15.5862 5.2978 15.115C5.3038 14.7682 5.5366 14.409 5.921 14.409C6.3178 14.409 6.5902 14.6474 6.6234 15.1514C6.6334 15.2754 6.7186 15.3622 6.893 15.3622C7.5006 15.3622 7.9882 14.463 8.5482 12.2314L9.6698 7.7998H8.94781C8.88541 7.7998 8.84941 7.7498 8.86301 7.68821L8.9434 7.3534C8.9566 7.29101 8.98221 7.2542 9.0814 7.2542H9.8142C10.0134 6.6382 10.1026 5.8026 11.1134 4.6994C11.4166 4.3642 12.1334 3.8498 12.9146 3.8498C13.981 3.8498 14.4214 4.2394 14.4134 4.6854C14.4082 4.9958 14.113 5.3746 13.7534 5.3746C13.2326 5.3746 13.2518 5.0086 13.183 4.7062ZM14.1414 12.5298C13.7222 12.5298 13.4574 12.2446 13.4646 11.7734C13.4706 11.389 13.8506 11.029 14.2162 11.029C14.7326 11.029 14.901 11.327 14.8954 11.7114C14.8898 12.0958 14.5394 12.5298 14.1414 12.5298ZM16.2658 12.5298C15.8466 12.5298 15.5818 12.2446 15.589 11.7734C15.595 11.389 15.975 11.029 16.3406 11.029C16.857 11.029 17.0254 11.327 17.0198 11.7114C17.0138 12.0958 16.6634 12.5298 16.2658 12.5298Z" fill="#07377F"/>
</svg>

<svg width="20" height="20" fill="none" xmlns="http://www.w3.org/2000/svg"><path d="M10 .8C4.927.8.8 4.927.8 10c0 5.073 4.127 9.2 9.2 9.2 5.073 0 9.2-4.127 9.2-9.2 0-5.073-4.127-9.2-9.2-9.2ZM7.719 4.527c.53 0 .778.31.772.695-.006.384-.365.818-.774.818-.43 0-.701-.285-.694-.757.006-.384.32-.756.696-.756Zm-2.866 7.605c.018-.469.225-.793.772-2.306l.352-.98c.078-.214.12-.314.152-.448a.563.563 0 0 0 .02-.144c.002-.087-.1-.1-.185-.035-.172.131-.549.456-.701.654-.05.05-.1.05-.136.012l-.124-.126c-.036-.036-.06-.086-.035-.11.04-.047.421-.6.996-1.042.352-.27.755-.521 1.26-.521.383 0 .541.198.537.446-.005.273-.16.645-.42 1.365l-.748 1.885c-.085.23-.137.387-.168.504-.032.116-.049.213.075.213.248 0 .797-.61.873-.722.026-.037.076-.037.1-.012l.187.176c.037.037.048.062.01.124-.145.138-.826 1.384-2.34 1.44-.371.012-.483-.187-.477-.373Zm7.164.398c-.419 0-.684-.285-.676-.757.006-.384.386-.744.751-.744.517 0 .685.298.68.682-.007.385-.357.819-.755.819Zm1.166-7.824a.447.447 0 0 0-.444-.348c-.818 0-1.287 1.573-1.632 2.899h.988c.074 0 .098.037.084.112l-.067.31c-.014.086-.04.124-.139.124h-.975c-.29 1.016-.707 3.338-1.177 4.639-.848 2.26-1.785 3.478-3.31 3.478-.745 0-1.222-.334-1.213-.805.006-.347.239-.706.623-.706.397 0 .67.238.702.742.01.124.096.211.27.211.608 0 1.095-.899 1.655-3.13L9.67 7.8h-.722c-.063 0-.099-.05-.085-.112l.08-.335c.014-.062.04-.099.138-.099h.733c.2-.616.289-1.451 1.3-2.555.303-.335 1.02-.85 1.8-.85 1.067 0 1.507.39 1.5.836-.006.31-.301.69-.66.69-.521 0-.502-.366-.571-.669Zm.958 7.824c-.419 0-.684-.285-.676-.757.006-.384.386-.744.751-.744.517 0 .685.298.68.682-.006.385-.357.819-.755.819Zm2.125 0c-.42 0-.684-.285-.677-.757.006-.384.386-.744.752-.744.516 0 .684.298.679.682-.006.385-.357.819-.754.819Z" fill="#07377F"/></svg>
